picto/luggage-prohibited.svg

<svg class="color-immutable" width="24" height="24" viewBox="0 0 24 24" fill="none" xmlns="http://www.w3.org/2000/svg"><path d="M0 22.5V1.5C0 0.675 0.675 0 1.5 0H22.5C23.325 0 24 0.675 24 1.5V22.5C24 23.325 23.325 24 22.5 24H1.5C0.675 24 0 23.325 0 22.5Z" fill="#2D327D"/><path d="M21.096 9.624C21.096 8.382 20.089 7.373 18.847 7.373H14.872V6.436C14.872 5.712 14.284 5.124 13.559 5.124H10.634C9.90901 5.124 9.32201 5.712 9.32201 6.436V7.374H8.45201L3.70801 2.631L2.64801 3.692L6.33001 7.374H5.34601C4.10401 7.374 3.09601 8.382 3.09601 9.625V18.626C3.09601 19.866 4.10401 20.875 5.34601 20.875H18.846C19.138 20.875 19.416 20.819 19.672 20.718L19.99 21.036L21.051 19.975L20.806 19.73C20.99 19.404 21.096 19.028 21.096 18.627V9.624ZM10.371 6.174H13.821V7.373H10.371V6.174Z" fill="white"/><path d="M3.70801 2.631L2.64801 3.692L19.99 21.034L21.05 19.973L3.70801 2.631Z" fill="#EB0000"/></svg>

<svg class="color-immutable" width="24" height="24" viewBox="0 0 24 24" fill="none" xmlns="http://www.w3.org/2000/svg"><g clip-path="url(#a)"><path d="M0 22.5v-21C0 .675.675 0 1.5 0h21c.825 0 1.5.675 1.5 1.5v21c0 .825-.675 1.5-1.5 1.5h-21C.675 24 0 23.325 0 22.5Z" fill="#2D327D"/><path d="M21.096 9.624a2.25 2.25 0 0 0-2.249-2.251h-3.975v-.937c0-.724-.588-1.312-1.313-1.312h-2.925c-.725 0-1.312.588-1.312 1.312v.938h-.87L3.708 2.631l-1.06 1.061L6.33 7.374h-.984a2.251 2.251 0 0 0-2.25 2.251v9.001a2.251 2.251 0 0 0 2.25 2.249h13.5c.292 0 .57-.056.826-.157l.318.318 1.061-1.061-.245-.245c.184-.326.29-.702.29-1.103V9.624Zm-10.725-3.45h3.45v1.199h-3.45V6.174Z" fill="#fff"/><path d="m3.708 2.631-1.06 1.061L19.99 21.034l1.06-1.061L3.708 2.631Z" fill="#EB0000"/></g><defs><clipPath id="a"><path fill="#fff" d="M0 0h24v24H0z"/></clipPath></defs></svg>
